ui/components/logo.svg

<svg fill="none" height="56" viewBox="0 0 56 56" width="56" xmlns="http://www.w3.org/2000/svg" xmlns:xlink="http://www.w3.org/1999/xlink"><clipPath id="a"><path d="m0 0h56v56h-56z"/></clipPath><g clip-path="url(#a)"><path d="m1.00004 24.5c0 9.665 7.83501 17.5 17.49996 17.5 9.665 0 17.5-7.835 17.5-17.5s-7.835-17.5-17.5-17.5c-9.66495 0-17.49996 7.835-17.49996 17.5z" fill="#59c3eb"/><path d="m18.5002 42v-34.76971" stroke="#2496cb" stroke-miterlimit="10" stroke-width="1.0083"/><path clip-rule="evenodd" d="m51.6817 11.5575c-.0001-.0001-.0001-.0001-.0001-.0001l-.0001.0002c-.0817.0137-18.7936 3.1704-25.4801 14.7516-6.701 11.6066 4.0886 22.3 4.0886 22.3l.0644-.1117c.0635.0178 14.6056 4.0836 21.292-7.4976 6.6864-11.5813.0643-29.3647.0353-29.4423l.0001-.0001s0 0-.0001 0z" fill="#14a87d" fill-rule="evenodd"/><g stroke="#0a8f6b" stroke-miterlimit="10" stroke-width="1.0833"><path d="m53.2411 26.1392-11.4522 3.0686"/><path d="m50.8999 13-21.9631 37.9528"/><path d="m52.1287 36.8142-17.6035 4.7169"/><path d="m40.0442 31.8432-3.1951-12.9303"/><path d="m31.948 45.9952-4.8618-18.1446"/><path d="m45.9619 21.8264-1.6882-6.3003"/></g><path clip-rule="evenodd" d="m34.736 17.9575c-3.38 2.1088-6.5086 4.8438-8.5338 8.3517-3.0458 5.2753-2.4782 10.362-.9528 14.3418 6.3142-2.6418 10.7506-8.8783 10.7506-16.151 0-2.3131-.4488-4.5214-1.264-6.5425z" fill="#f7605f" fill-rule="evenodd" opacity=".8"/></g></svg>

<svg width="56" height="56" viewBox="0 0 56 56" fill="none" xmlns="http://www.w3.org/2000/svg">
<g clip-path="url(#clip0)">
<path d="M1.00004 24.5C1.00004 34.165 8.83505 42 18.5 42C28.165 42 36 34.165 36 24.5C36 14.835 28.165 7 18.5 7C8.83505 7 1.00004 14.835 1.00004 24.5Z" fill="#FFC173"/>
<path opacity="0.9" d="M18.5 42L18.5 7.23029" stroke="#E87F1E" stroke-miterlimit="10"/>
<path fill-rule="evenodd" clip-rule="evenodd" d="M51.6814 11.5575C51.6814 11.5574 51.6814 11.5574 51.6814 11.5574L51.6813 11.5576C51.5996 11.5713 32.8876 14.728 26.2012 26.3092C19.5001 37.9158 30.2897 48.6092 30.2897 48.6092L30.3542 48.4975C30.4177 48.5154 44.9598 52.5811 51.6462 40.9999C58.3326 29.4186 51.7104 11.6352 51.6815 11.5576L51.6815 11.5575C51.6815 11.5575 51.6815 11.5575 51.6814 11.5575Z" fill="#14A87D"/>
<path d="M53.2408 26.1392L41.7887 29.2078" stroke="#0A8F6B" stroke-width="1.0833" stroke-miterlimit="10"/>
<path d="M50.8999 13L28.9368 50.9528" stroke="#0A8F6B" stroke-width="1.0833" stroke-miterlimit="10"/>
<path d="M52.1289 36.8142L34.5254 41.5311" stroke="#0A8F6B" stroke-width="1.0833" stroke-miterlimit="10"/>
<path d="M40.0442 31.8432L36.8491 18.9129" stroke="#0A8F6B" stroke-width="1.0833" stroke-miterlimit="10"/>
<path d="M31.9482 45.9952L27.0864 27.8506" stroke="#0A8F6B" stroke-width="1.0833" stroke-miterlimit="10"/>
<path d="M45.9616 21.8264L44.2734 15.5261" stroke="#0A8F6B" stroke-width="1.0833" stroke-miterlimit="10"/>
<g style="mix-blend-mode:difference" opacity="0.8">
<path fill-rule="evenodd" clip-rule="evenodd" d="M34.7362 17.9575C31.3563 20.0663 28.2277 22.8013 26.2024 26.3092C23.1567 31.5845 23.7242 36.6712 25.2497 40.651C31.5638 38.0092 36.0002 31.7727 36.0002 24.5C36.0002 22.1869 35.5514 19.9786 34.7362 17.9575Z" fill="#F7605F"/>
</g>
</g>
<defs>
<clipPath id="clip0">
<rect width="56" height="56" fill="white"/>
</clipPath>
</defs>
</svg>
